X:48
T:Captain Money's March
C:Arr. by John J. Benoit, 1994
M:C
L:1/8
Q:1/4=90
%%staves [1 2]
K:G
V:1
%%MIDI channel 1
%%MIDI program 72
%%MIDI transpose 8
%%MIDI grace 1/8
%%MIDI ratio 3 1
GA|:B2 AG d2 BG|.e2 .e2 d2 Bc|d2 cB (Ac)BA|1 .G2 GG G2 GA:|2 .G2 GG G2 d2|
|:g2 fe d2 cB|.e2 .e2 d2 Bc|d2 cB A2 G2|(AG)FE D2 d2|
g2 fe d2 cB|.e2 .e2 d2 c2|Bgfg .B2 TA2|1 .G2 GG G2 d2:|2 .G2 GG G2|
V:2
K:treble
%%MIDI channel 1
%%MIDI program 72
%%MIDI transpose 8
%%MIDI grace 1/8
%%MIDI ratio 3 1
!p!B,D|:G2 D2 B,C D2|CEGc B2 GA|B2 AG (FE)DC|1 .B,2 B,B, B,2 B,D:|2 .B,2 B,B, B,2 A2|
|:B2 dc B2 AG|.c2 .c2 B2 GA|B2 AG F2 E2|(FE)DA, F,2 A2|
B2 dc B2 AG|.c2 .c2 B2 (EF)|G d2 B .G2 DC|1 .B,2 B,B, B,2 A2:|2 .B,2 B,B, B,2|
